X: 149
T: Rose is White, Rose is Red
M:4/4
L:1/8
Q:160
S:Playford
O:Manuscript
A:English
K:G
G2|B B>AG|A2 F c>BA|B2 B B>AG|B3 d2 e/2=f/2|g>^fe d>cB|A2 A e>dc|B2 B B> AG|B3 D3:|

